X: 25
T: Finnegan's Wake
P: piffero primo a0693
O: trad Irish
%R: march
F: http://ancients.sudburymuster.org/mus/sng/pdf/finnegansHC0.pdf
Z: 2020 John Chambers <jc:trillian.mit.edu>
M: 2/4
L: 1/8
K: G
A |\
B>B BA | Bd ed | g/g/g/g/ ge | dB Az |\
B>B BA | Bd ed | g/g/g/g/ gd | ef g :|
|: d |\
g>f ga | gf ed | g>f ga | gf ez |\
g>f ga | gf ed | e/e/e/e/ ed | ef g :|


